X:1
T:The Unfortunate Rake
M:6/8
L:1/8
K:G
 D3/2 D/2 D FAA| G3/2 G/2 GB d2| AAA AFD| E3/2 D/2 E F2 F| D3/2 D/2 D FAA|\
 G3/2 G/2 G BdB| A3/2 A/2 B AFD| E3/2 F/2 E D3|

